X: 10079
T: NEIL VINCENT ORZECHOWSKI'S WELCOME TO EARTH
C: Bob McQuillen 18 May 93
B: Bob's Note Book 10 #79
%R: march
Z: 2020 John Chambers <jc:trillian.mit.edu>
M: C
L: 1/4
K: A
EAB \
| cc2e | c2Ac | BA2A | FAAF | EA2A | AABc | B4- | BGAB |
| c>Bce | c2Ac | BA2A | FAAF | EA2A | c2B2 | A4- | A :|
|: Bcd \
| e>cef | e2ce | a2g2 | fa2f | e2fe | cBA2 | B4- | B2Ac |
| e>cef | e2ce | a3g | faaf | e2cA | B3A | A4- | A :|
%%begintext align
%% Neil arrived
%% 3 May 93, and thereby made glad his Mom and
%% Dad, Jane and Peter, his sisters, Amelia and Sophie,
%% and his brothers, Francis and Russell. Welcome
%% aboard, Neil - we're all glad you got here OK!
%%endtext

%%sep 1 1 500

%%sep 1 1 500

